dist/img/sprites/hService.svg

<svg width="32" height="32" viewBox="0 0 32 32" fill="none" xmlns="http://www.w3.org/2000/svg">
<g clip-path="url(#clip0_730_5345)">
<path d="M24.7602 13.9401L22.5602 13.8401C22.4602 13.6001 22.3602 13.3601 22.2602 13.1101L23.7502 11.4501C24.0502 11.1001 24.0502 10.5901 23.7202 10.2701L21.6502 8.16005C21.3502 7.85005 20.8002 7.81005 20.5002 8.13005L18.8702 9.65005C18.6302 9.55005 18.4002 9.44005 18.1602 9.34005L18.0602 7.09005C18.0302 6.64005 17.6502 6.26005 17.2102 6.26005H14.2602C13.8202 6.26005 13.4502 6.61005 13.4102 7.09005L13.3102 9.34005C13.0702 9.44005 12.8402 9.55005 12.6002 9.65005L10.9702 8.13005C10.6302 7.82005 10.1202 7.82005 9.82021 8.16005L7.75021 10.2701C7.45021 10.5801 7.41021 11.1301 7.72021 11.4501L9.21021 13.1401C9.11021 13.3801 9.01021 13.6201 8.91021 13.8701L6.71021 13.9701C6.27021 14.0001 5.90021 14.3801 5.90021 14.8301V17.8401C5.90021 18.2901 6.24021 18.6701 6.71021 18.7001L8.91021 18.8001C9.01021 19.0401 9.11021 19.2801 9.21021 19.5301L7.72021 21.2201C7.42021 21.5701 7.42021 22.0801 7.75021 22.4001L9.82021 24.5101C10.1202 24.8201 10.6702 24.8601 10.9702 24.5401L12.6002 23.0201C12.8402 23.1201 13.0702 23.2301 13.3102 23.3301L13.4102 25.5801C13.4402 26.0301 13.8202 26.4101 14.2602 26.4101H17.2102C17.6502 26.4101 18.0202 26.0601 18.0602 25.5801L18.1602 23.3301C18.4002 23.2301 18.6302 23.1201 18.8702 23.0201L20.5002 24.5401C20.8402 24.8501 21.3502 24.8501 21.6502 24.5101L23.7202 22.4001C24.0202 22.0901 24.0602 21.5401 23.7502 21.2201L22.2602 19.5601C22.3602 19.3201 22.4602 19.0801 22.5602 18.8301L24.7602 18.7301C25.2002 18.7001 25.5702 18.3201 25.5702 17.8701V14.8601C25.5402 14.3101 25.2002 13.9301 24.7602 13.9301V13.9401ZM23.8402 16.9801L21.8402 17.0801C21.4702 17.1101 21.1602 17.3601 21.0602 17.7401C20.9202 18.2601 20.7202 18.7401 20.4502 19.2301C20.2502 19.5401 20.3102 19.9601 20.5502 20.2701L21.9102 21.7901L20.9602 22.7601L19.4702 21.3801C19.2002 21.1401 18.7902 21.0701 18.4902 21.2801C18.0202 21.5601 17.5402 21.7601 17.0302 21.9001C16.6602 22.0001 16.4202 22.3101 16.3902 22.7001L16.2902 24.7401H14.9702L14.8702 22.7001C14.8402 22.3201 14.6002 22.0101 14.2302 21.9001C13.7202 21.7601 13.2502 21.5501 12.7702 21.2801C12.4702 21.0701 12.0602 21.1401 11.7902 21.3801L10.3002 22.7601L9.35021 21.7901L10.7102 20.2701C10.9502 19.9901 11.0102 19.5801 10.8102 19.2701C10.5402 18.7901 10.3402 18.3001 10.2002 17.7801C10.1002 17.4001 9.79021 17.1601 9.42021 17.1201L7.42021 17.0201V15.6001L9.42021 15.5001C9.79021 15.4701 10.1002 15.2201 10.2002 14.8401C10.3402 14.3201 10.5402 13.8401 10.8102 13.3501C10.9802 13.0401 10.9502 12.6201 10.7102 12.3501L9.35021 10.8301L10.3002 9.86005L11.7902 11.2401C12.0602 11.4801 12.4702 11.5501 12.8102 11.3401C13.2502 11.0601 13.7602 10.8601 14.2702 10.7201C14.6402 10.6201 14.8802 10.3101 14.9102 9.92005L15.0102 7.88005H16.3302L16.4302 9.92005C16.4602 10.3001 16.7002 10.6101 17.0702 10.7201C17.5802 10.8601 18.0502 11.0701 18.5302 11.3401C18.8302 11.5501 19.2402 11.4801 19.5502 11.2401L21.0402 9.86005L21.9902 10.8301L20.6302 12.3501C20.3902 12.6301 20.3302 13.0401 20.5302 13.3501C20.8002 13.8001 21.0002 14.3201 21.1402 14.8401C21.2402 15.2201 21.5502 15.4601 21.9202 15.5001L23.9202 15.6001V16.9801H23.8502H23.8402ZM15.6402 12.2401C13.4402 12.2401 11.6802 14.0701 11.6802 16.2901C11.6802 18.5101 13.4802 20.3401 15.6402 20.3401C17.8002 20.3401 19.6002 18.5101 19.6002 16.2901C19.6002 14.0701 17.8402 12.2401 15.6402 12.2401ZM15.6402 18.6001C14.3902 18.6001 13.3702 17.5601 13.3702 16.2801C13.3702 15.0001 14.3902 13.9601 15.6402 13.9601C16.8902 13.9601 17.9102 15.0001 17.9102 16.2801C17.9102 17.5601 16.8902 18.6001 15.6402 18.6001ZM30.0402 9.54005C29.5002 7.85005 28.5802 6.64005 27.2602 5.87005C25.8402 5.01005 24.4102 4.18005 22.9902 3.35005C21.5702 2.52005 20.1402 1.69005 18.7202 0.830052C17.8102 0.310052 16.9002 0.0300518 15.8802 5.17771e-05C14.6602 -0.0299482 13.6102 0.210052 12.6902 0.760052C11.8802 1.24005 11.0602 1.69005 10.2802 2.18005C8.25021 3.36005 6.15021 4.60005 4.08021 5.85005C2.11021 7.06005 1.06021 8.93005 1.06021 11.2101C1.03021 13.4601 1.06021 15.7401 1.06021 17.9501V21.3001C1.06021 21.9601 1.16021 22.5801 1.33021 23.1001C1.87021 24.6901 2.79021 25.9001 4.07021 26.6601C5.46021 27.4901 6.88021 28.3201 8.31021 29.1501C9.73021 29.9801 11.1602 30.8101 12.5502 31.6401C13.4002 32.1601 14.2802 32.4401 15.2902 32.5001H15.7602C16.8402 32.5001 17.8302 32.2201 18.7102 31.7001L18.7402 31.6701C21.5202 30.0101 24.4002 28.3201 27.2102 26.6601C28.1302 26.1401 28.8702 25.4201 29.4102 24.4501C30.0202 23.3801 30.2902 22.4801 30.2902 21.5101V11.1701C30.2602 10.6901 30.1902 10.1001 30.0202 9.54005H30.0402ZM28.5802 21.5701C28.5802 22.1901 28.3802 22.8501 27.9002 23.6501C27.5302 24.3401 27.0202 24.8601 26.3402 25.2401C23.4902 26.9001 20.6102 28.5901 17.8302 30.2501L17.7602 30.2801C17.0502 30.6901 16.2702 30.8701 15.3202 30.8301C14.5702 30.7601 13.9302 30.5501 13.3202 30.1701C11.9002 29.3401 10.5102 28.5101 9.08021 27.6801C7.66021 26.8501 6.27021 26.0201 4.84021 25.1901C3.89021 24.6401 3.25021 23.8101 2.84021 22.5601C2.70021 22.2101 2.64021 21.8001 2.64021 21.3101V11.2401C2.64021 9.51005 3.35021 8.27005 4.84021 7.33005C6.87021 6.09005 8.97021 4.87005 11.0102 3.66005C11.8202 3.18005 12.6402 2.73005 13.4502 2.24005C14.0602 1.86005 14.7002 1.69005 15.5202 1.69005H15.7202C16.4702 1.72005 17.1402 1.93005 17.7902 2.31005C19.2102 3.14005 20.6402 4.00005 22.0602 4.83005C23.4802 5.66005 24.9102 6.52005 26.3602 7.35005C27.3102 7.90005 27.9502 8.77005 28.3602 10.0501C28.4602 10.4001 28.5302 10.8101 28.5302 11.2301V21.5701H28.5602H28.5802Z" fill="#4B8125"/>
</g>
<defs>
<clipPath id="clip0_730_5345">
<rect width="32" height="32" fill="white"/>
</clipPath>
</defs>
</svg>

<svg width="32" height="32" viewBox="0 0 32 32" fill="none" xmlns="http://www.w3.org/2000/svg"><g clip-path="url(#clip0_730_5345)"><path d="M24.76 13.94l-2.2-.1c-.1-.24-.2-.48-.3-.73l1.49-1.66c.3-.35.3-.86-.03-1.18l-2.07-2.11c-.3-.31-.85-.35-1.15-.03l-1.63 1.52c-.24-.1-.47-.21-.71-.31l-.1-2.25c-.03-.45-.41-.83-.85-.83h-2.95c-.44 0-.81.35-.85.83l-.1 2.25c-.24.1-.47.21-.71.31l-1.63-1.52c-.34-.31-.85-.31-1.15.03l-2.07 2.11c-.3.31-.34.86-.03 1.18l1.49 1.69c-.1.24-.2.48-.3.73l-2.2.1c-.44.03-.81.41-.81.86v3.01c0 .45.34.83.81.86l2.2.1c.1.24.2.48.3.73l-1.49 1.69c-.3.35-.3.86.03 1.18l2.07 2.11c.3.31.85.35 1.15.03l1.63-1.52c.24.1.47.21.71.31l.1 2.25c.03.45.41.83.85.83h2.95c.44 0 .81-.35.85-.83l.1-2.25c.24-.1.47-.21.71-.31l1.63 1.52c.34.31.85.31 1.15-.03l2.07-2.11c.3-.31.34-.86.03-1.18l-1.49-1.66c.1-.24.2-.48.3-.73l2.2-.1c.44-.03.81-.41.81-.86v-3.01c-.03-.55-.37-.93-.81-.93v.01zm-.92 3.04l-2 .1a.87.87 0 00-.78.66c-.14.52-.34 1-.61 1.49-.2.31-.14.73.1 1.04l1.36 1.52-.95.97-1.49-1.38c-.27-.24-.68-.31-.98-.1-.47.28-.95.48-1.46.62-.37.1-.61.41-.64.8l-.1 2.04h-1.32l-.1-2.04a.887.887 0 00-.64-.8c-.51-.14-.98-.35-1.46-.62-.3-.21-.71-.14-.98.1l-1.49 1.38-.95-.97 1.36-1.52c.24-.28.3-.69.1-1-.27-.48-.47-.97-.61-1.49a.883.883 0 00-.78-.66l-2-.1V15.6l2-.1a.87.87 0 00.78-.66c.14-.52.34-1 .61-1.49.17-.31.14-.73-.1-1l-1.36-1.52.95-.97 1.49 1.38c.27.24.68.31 1.02.1.44-.28.95-.48 1.46-.62.37-.1.61-.41.64-.8l.1-2.04h1.32l.1 2.04c.03.38.27.69.64.8.51.14.98.35 1.46.62.3.21.71.14 1.02-.1l1.49-1.38.95.97-1.36 1.52c-.24.28-.3.69-.1 1 .27.45.47.97.61 1.49.1.38.41.62.78.66l2 .1v1.38h-.08zm-8.2-4.74c-2.2 0-3.96 1.83-3.96 4.05 0 2.22 1.8 4.05 3.96 4.05s3.96-1.83 3.96-4.05c0-2.22-1.76-4.05-3.96-4.05zm0 6.36c-1.25 0-2.27-1.04-2.27-2.32 0-1.28 1.02-2.32 2.27-2.32s2.27 1.04 2.27 2.32c0 1.28-1.02 2.32-2.27 2.32zm14.4-9.06c-.54-1.69-1.46-2.9-2.78-3.67-1.42-.86-2.85-1.69-4.27-2.52-1.42-.83-2.85-1.66-4.27-2.52-.91-.52-1.82-.8-2.84-.83-1.22-.03-2.27.21-3.19.76-.81.48-1.63.93-2.41 1.42-2.03 1.18-4.13 2.42-6.2 3.67-1.97 1.21-3.02 3.08-3.02 5.36-.03 2.25 0 4.53 0 6.74v3.35c0 .66.1 1.28.27 1.8.54 1.59 1.46 2.8 2.74 3.56 1.39.83 2.81 1.66 4.24 2.49 1.42.83 2.85 1.66 4.24 2.49.85.52 1.73.8 2.74.86h.47c1.08 0 2.07-.28 2.95-.8l.03-.03c2.78-1.66 5.66-3.35 8.47-5.01.92-.52 1.66-1.24 2.2-2.21.61-1.07.88-1.97.88-2.94V11.17c-.03-.48-.1-1.07-.27-1.63h.02zm-1.46 12.03c0 .62-.2 1.28-.68 2.08-.37.69-.88 1.21-1.56 1.59-2.85 1.66-5.73 3.35-8.51 5.01l-.07.03c-.71.41-1.49.59-2.44.55-.75-.07-1.39-.28-2-.66-1.42-.83-2.81-1.66-4.24-2.49-1.42-.83-2.81-1.66-4.24-2.49-.95-.55-1.59-1.38-2-2.63-.14-.35-.2-.76-.2-1.25V11.24c0-1.73.71-2.97 2.2-3.91 2.03-1.24 4.13-2.46 6.17-3.67.81-.48 1.63-.93 2.44-1.42.61-.38 1.25-.55 2.07-.55h.2c.75.03 1.42.24 2.07.62 1.42.83 2.85 1.69 4.27 2.52 1.42.83 2.85 1.69 4.3 2.52.95.55 1.59 1.42 2 2.7.1.35.17.76.17 1.18v10.34h.05z" fill="#4B8125"/></g><defs><clipPath id="clip0_730_5345"><path fill="#fff" d="M0 0h32v32H0z"/></clipPath></defs></svg>
